luts/iPhone_2020_to_709_33.cube
#Created by: Davinci Resolve
TITLE 'BMD_iPhone_2020_to_709_33'
#LUT size
LUT_3D_SIZE 33
#data domain
DOMAIN_MIN 0.0 0.0 0.0
DOMAIN_MAX 1.0 1.0 1.0
#LUT data points
0.0082959 0.0082951 0.0082942
0.0670191 0.0114141 0.0099571
0.1228773 0.0134054 0.0113409
0.1608003 0.0145759 0.0123493
0.1923794 0.0154219 0.0132201
0.2211089 0.0160876 0.0140323
0.2484741 0.0166212 0.0148230
0.2752894 0.0170360 0.0156103
0.3020245 0.0173552 0.0164076
0.3290198 0.0175722 0.0172272
0.3565381 0.0176942 0.0180748
0.3847658 0.0177241 0.0189568
0.4139070 0.0176409 0.0198798
0.4441006 0.0174310 0.0208506
0.4754657 0.0171163 0.0218682
0.5081707 0.0166426 0.0229486
0.5423110 0.0160349 0.0240910
0.5780055 0.0152738 0.0253138
0.6153452 0.0143786 0.0266156
0.6545190 0.0132725 0.0280013
0.6955913 0.0120175 0.0294928
0.7386919 0.0105518 0.0311160
0.7839332 0.0088981 0.0328634
0.8314634 0.0070011 0.0347636
0.8813806 0.0049725 0.0368409
0.9338133 0.0027418 0.0391005
0.9889001 0.0003432 0.0415942
1.0000000 0.0000000 0.0443425
1.0000000 0.0000000 0.0473906
1.0000000 0.0000000 0.0507726
1.0000000 0.0000000 0.0545913
1.0000000 0.0000000 0.0588716
1.0000000 0.0000000 0.0636683
0.0044497 0.0445140 0.0101516
0.0397866 0.0408230 0.0106041
0.1018800 0.0363532 0.0115331
0.1459431 0.0338581 0.0123900
0.1810563 0.0322266 0.0131917
0.2121028 0.0310493 0.0139683
0.2411396 0.0301182 0.0147404
0.2691913 0.0293370 0.0155163
0.2968900 0.0286359 0.0163076
0.3246696 0.0279716 0.0171232
0.3527854 0.0273476 0.0179673
0.3815540 0.0266757 0.0188470
0.4111142 0.0259993 0.0197639
0.4416717 0.0252404 0.0207313
0.4733484 0.0244143 0.0217534
0.5062940 0.0235227 0.0228308
0.5406592 0.0224810 0.0239777
0.5765544 0.0213434 0.0251957
0.6140972 0.0200542 0.0265040
0.6534227 0.0186203 0.0278935
0.6945784 0.0171070 0.0293952
0.7378460 0.0152455 0.0310246
0.7832148 0.0132551 0.0327768
0.8307448 0.0113095 0.0346708
0.8807980 0.0089394 0.0367433
0.9332255 0.0066323 0.0390066
0.9883794 0.0039959 0.0415083
1.0000000 0.0013345 0.0442653
1.0000000 0.0000000 0.0473339
1.0000000 0.0000000 0.0507135
1.0000000 0.0000000 0.0545274
1.0000000 0.0000000 0.0587949
1.0000000 0.0000000 0.0636050
0.0000000 0.0829109 0.0113375
0.0212188 0.0800232 0.0115689
0.0732546 0.0748735 0.0121211
0.1214493 0.0704640 0.0127203
0.1600731 0.0667112 0.0133450
0.1941049 0.0634100 0.0139979
0.2256067 0.0604757 0.0146772
0.2557543 0.0577952 0.0153877
0.2852109 0.0553427 0.0161278
0.3144848 0.0530422 0.0169052
0.3438800 0.0509034 0.0177227
0.3737591 0.0488123 0.0185827
0.4042895 0.0467922 0.0194907
0.4356436 0.0448383 0.0204488
0.4680835 0.0428351 0.0214659
0.5016500 0.0408705 0.0225414
0.5365593 0.0388396 0.0236915
0.5729207 0.0367825 0.0249081
0.6108533 0.0346636 0.0262219
0.6505409 0.0324104 0.0276233
0.6920930 0.0300085 0.0291348
0.7355930 0.0274978 0.0307647
0.7812052 0.0249095 0.0325185
0.8290235 0.0221667 0.0344310
0.8792094 0.0192585 0.0365259
0.9318798 0.0162781 0.0387946
0.9871970 0.0130950 0.0413043
1.0000000 0.0100586 0.0440703
1.0000000 0.0067232 0.0471262
1.0000000 0.0033538 0.0505528
1.0000000 0.0003945 0.0543649
1.0000000 0.0000000 0.0586238
1.0000000 0.0000000 0.0634447
0.0000000 0.1129560 0.0119671
0.0097772 0.1111916 0.0121301
0.0541824 0.1072334 0.0125331
0.1015475 0.1032528 0.0129944
0.1418887 0.0993904 0.0134979
0.1775963 0.0955970 0.0140461
0.2106792 0.0918940 0.0146401
0.2422861 0.0882603 0.0152763
0.2731203 0.0846778 0.0159589
0.3036302 0.0809146 0.0166894
0.3342217 0.0774543 0.0174692
0.3651183 0.0741129 0.0183010
0.3965646 0.0708729 0.0191859
0.4287699 0.0676987 0.0201270
0.4619626 0.0645251 0.0211358
0.4961967 0.0614332 0.0222108
0.5317074 0.0583481 0.0233521
0.5686021 0.0552765 0.0245703
0.6070320 0.0521341 0.0258888
0.6471586 0.0489174 0.0273002
0.6891024 0.0456267 0.0288169
0.7329423 0.0422770 0.0304512
0.7788166 0.0389065 0.0322202
0.8269259 0.0353775 0.0341384
0.8773146 0.0318377 0.0362390
0.9302142 0.0281149 0.0385248
0.9857001 0.0243328 0.0410530
1.0000000 0.0204029 0.0438370
1.0000000 0.0166160 0.0469070
1.0000000 0.0130285 0.0503040
1.0000000 0.0093817 0.0541419
1.0000000 0.0061234 0.0584304
1.0000000 0.0033898 0.0632700
0.0000000 0.1380681 0.0123631
0.0000000 0.1367473 0.0124909
0.0390662 0.1336374 0.0128123
0.0834156 0.1303245 0.0131857
0.1251628 0.1269094 0.0136073
0.1620501 0.1233966 0.0140771
0.1962641 0.1198168 0.0145952
0.2289785 0.1161716 0.0151647
0.2608921 0.1124569 0.0157909
0.2924637 0.1086929 0.0164711
0.3240332 0.1048811 0.0172102
0.3558517 0.1010473 0.0180057
0.3881912 0.0971496 0.0188649
0.4212309 0.0932100 0.0197848
0.4551326 0.0892202 0.0207729
0.4900960 0.0851329 0.0218388
0.5262400 0.0807291 0.0229784
0.5637389 0.0765139 0.0242020
0.6026890 0.0723407 0.0255111
0.6432547 0.0681446 0.0269239
0.6855782 0.0639392 0.0284427
0.7298042 0.0596567 0.0300916
0.7760535 0.0553330 0.0318686
0.8244669 0.0509469 0.0337995
0.8751479 0.0465464 0.0359135
0.9282943 0.0419515 0.0382278
0.9839326 0.0376037 0.0407409
1.0000000 0.0330040 0.0435443
1.0000000 0.0285455 0.0466082
1.0000000 0.0241676 0.0500699
1.0000000 0.0199132 0.0539121
1.0000000 0.0160360 0.0582026
1.0000000 0.0130077 0.0630427
0.0000000 0.1609561 0.0126182
0.0000000 0.1599344 0.0127203
0.0254759 0.1574120 0.0129867
0.0659535 0.1546170 0.0133021
0.1087706 0.1516389 0.0136611
0.1467128 0.1484980 0.0140672
0.1819472 0.1451529 0.0145253
0.2155512 0.1416767 0.0150396
0.2483631 0.1380423 0.0156104
0.2808411 0.1342626 0.0162381
0.3132527 0.1303846 0.0169307
0.3459554 0.1263713 0.0176897
0.3791249 0.1222502 0.0185149
0.4129569 0.1180429 0.0194040
0.4476055 0.1137233 0.0203787
0.4832549 0.1093132 0.0214261
0.5200694 0.1047801 0.0225523
0.5581396 0.1001768 0.0237669
0.5976756 0.0953815 0.0250808
0.6387437 0.0905036 0.0264923
0.6815525 0.0853899 0.0280301
0.7262015 0.0799115 0.0296677
0.7728144 0.0745774 0.0314664
0.8215246 0.0693033 0.0334051
0.8725680 0.0638596 0.0355353
0.9259256 0.0585692 0.0378543
0.9819258 0.0530957 0.0403864
1.0000000 0.0477699 0.0431947
1.0000000 0.0425580 0.0462969
1.0000000 0.0373470 0.0497599
1.0000000 0.0322096 0.0536164
1.0000000 0.0279570 0.0579285
1.0000000 0.0240589 0.0627866
0.0000000 0.1828007 0.0127562
0.0000000 0.1819543 0.0128461
0.0125041 0.1798682 0.0130733
0.0497803 0.1775010 0.0133439
0.0917868 0.1749181 0.0136538
0.1311607 0.1721024 0.0140131
0.1673354 0.1690684 0.0144192
0.2018465 0.1658118 0.0148808
0.2354146 0.1623717 0.0153999
0.2686819 0.1587047 0.0159828
0.3018763 0.1548770 0.0166282
0.3353770 0.1508368 0.0173447
0.3693207 0.1466420 0.0181353
0.4039156 0.1422954 0.0189947
0.4393386 0.1377710 0.0199437
0.4756434 0.1331725 0.0209648
0.5131412 0.1283725 0.0220792
0.5518188 0.1234843 0.0232886
0.5919474 0.1184177 0.0245955
0.6335887 0.1131952 0.0260134
0.6769010 0.1078235 0.0275438
0.7220360 0.1022523 0.0291976
0.7690777 0.0965310 0.0309949
0.8182283 0.0905722 0.0329501
0.8695609 0.0844204 0.0350878
0.9232885 0.0778154 0.0374201
0.9794776 0.0715057 0.0399819
1.0000000 0.0653056 0.0428031
1.0000000 0.0590533 0.0459181
1.0000000 0.0529187 0.0494044
1.0000000 0.0471950 0.0532941
1.0000000 0.0417853 0.0576298
1.0000000 0.0374190 0.0624776
0.0000000 0.2042017 0.0127969
0.0000000 0.2034936 0.0128749
0.0000000 0.2017429 0.0130731
0.0339362 0.1997218 0.0133068
0.0733826 0.1974683 0.0135797
0.1147310 0.1949672 0.0138999
0.1521002 0.1922350 0.0142609
0.1874867 0.1892548 0.0146775
0.2218887 0.1860240 0.0151512
0.2558960 0.1825413 0.0156911
0.2898672 0.1788269 0.0162908
0.3240938 0.1748676 0.0169661
0.3587459 0.1707095 0.0177153
0.3940696 0.1663249 0.0185449
0.4301791 0.1617509 0.0194580
0.4672398 0.1569880 0.0204613
0.5053893 0.1520485 0.0215555
0.5447547 0.1469384 0.0227481
0.5854956 0.1416442 0.0240426
0.6277025 0.1362023 0.0254533
0.6715863 0.1305512 0.0269863
0.7171651 0.1248080 0.0286418
0.7647095 0.1187771 0.0304601
0.8142786 0.1126078 0.0324276
0.8660356 0.1062564 0.0345620
0.9201213 0.0996412 0.0369210
0.9766219 0.0929782 0.0394988
1.0000000 0.0859781 0.0423393
1.0000000 0.0785420 0.0454877
1.0000000 0.0714991 0.0490005
1.0000000 0.0647771 0.0528689
1.0000000 0.0585346 0.0572445
1.0000000 0.0529409 0.0621225
0.0000000 0.2255401 0.0127429
0.0000000 0.2249542 0.0128093
0.0000000 0.2234606 0.0129812
0.0181225 0.2217072 0.0131929
0.0550183 0.2197492 0.0134369
0.0968484 0.2175339 0.0137204
0.1358543 0.2150774 0.0140489
0.1723747 0.2123540 0.0144259
0.2076396 0.2093739 0.0148547
0.2423966 0.2061164 0.0153473
0.2770535 0.2025940 0.0159075
0.3119770 0.1987919 0.0165416
0.3473482 0.1947124 0.0172532
0.3833703 0.1903896 0.0180436
0.4201886 0.1858151 0.0189262
0.4579247 0.1810334 0.0198927
0.4967803 0.1759861 0.0209669
0.5368320 0.1707414 0.0221416
0.5782201 0.1652772 0.0234233
0.6210856 0.1596236 0.0248263
0.6655061 0.1537904 0.0263621
0.7116830 0.1477650 0.0280239
0.7596599 0.1416304 0.0298351
0.8098175 0.1350954 0.0318136
0.8619923 0.1285192 0.0339732
0.9164132 0.1218683 0.0363342
0.9733538 0.1148852 0.0389347
1.0000000 0.1076893 0.0418131
1.0000000 0.1003467 0.0449606
1.0000000 0.0930986 0.0484710
1.0000000 0.0858806 0.0523964
1.0000000 0.0781388 0.0567778
1.0000000 0.0715102 0.0617232
0.0000000 0.2471084 0.0125906
0.0000000 0.2465984 0.0126514
0.0000000 0.2453143 0.0128031
0.0018299 0.2437969 0.0129902
0.0363635 0.2420919 0.0132052
0.0764557 0.2401188 0.0134649
0.1181107 0.2379217 0.0137596
0.1560601 0.2354670 0.0140997
0.1923731 0.2327342 0.0144957
0.2279379 0.2297197 0.0149546
0.2634048 0.2263957 0.0154709
0.2990053 0.2227836 0.0160619
0.3350772 0.2188731 0.0167293
0.3717656 0.2146692 0.0174814
0.4092627 0.2101647 0.0183330
0.4477029 0.2054057 0.0192673
0.4872576 0.2003375 0.0203111
0.5279786 0.1950409 0.0214615
0.5700401 0.1894749 0.0227326
0.6135439 0.1836853 0.0241216
0.6585920 0.1777203 0.0256381
0.7053447 0.1715124 0.0273029
0.7539650 0.1650817 0.0291229
0.8045579 0.1584642 0.0311076
0.8572158 0.1516935 0.0332840
0.9121997 0.1446098 0.0356823
0.9695007 0.1375550 0.0382794
1.0000000 0.1301895 0.0411759
1.0000000 0.1228651 0.0443435
1.0000000 0.1152106 0.0479217
1.0000000 0.1075558 0.0518551
1.0000000 0.1003330 0.0562537
1.0000000 0.0932580 0.0612020
0.0000000 0.2690760 0.0123360
0.0000000 0.2686459 0.0123886
0.0000000 0.2675386 0.0125244
0.0000000 0.2662289 0.0126935
0.0172233 0.2647151 0.0128886
0.0549005 0.2629943 0.0131170
0.0978498 0.2610331 0.0133887
0.1380503 0.2588077 0.0136978
0.1758136 0.2563052 0.0140663
0.2124547 0.2535288 0.0144847
0.2486290 0.2504734 0.0149580
0.2851128 0.2470287 0.0155222
0.3218119 0.2433329 0.0161474
0.3591684 0.2392985 0.0168580
0.3973745 0.2349197 0.0176655
0.4365054 0.2302386 0.0185692
0.4767091 0.2252443 0.0195807
0.5181456 0.2199307 0.0207097
0.5608619 0.2143695 0.0219488
0.6050322 0.2085220 0.0233226
0.6507063 0.2024529 0.0248252
0.6981820 0.1960289 0.0265002
0.7474297 0.1894087 0.0283177
0.7985703 0.1826108 0.0303087
0.8518082 0.1755937 0.0324920
0.9071856 0.1684832 0.0348898
0.9650759 0.1610396 0.0375375
1.0000000 0.1534947 0.0404267
1.0000000 0.1459550 0.0436568
1.0000000 0.1382644 0.0472322
1.0000000 0.1306473 0.0511764
1.0000000 0.1227810 0.0556520
1.0000000 0.1152750 0.0606078
0.0000000 0.2916471 0.0119645
0.0000000 0.2912737 0.0120092
0.0000000 0.2902962 0.0121413
0.0000000 0.2891684 0.0122869
0.0000000 0.2878265 0.0124656
0.0327682 0.2862970 0.0126795
0.0740371 0.2845578 0.0129205
0.1177898 0.2825526 0.0132071
0.1574353 0.2803053 0.0135410
0.1954722 0.2777558 0.0139260
0.2327448 0.2749103 0.0143767
0.2699347 0.2717519 0.0148887
0.3075340 0.2682120 0.0154855
0.3455614 0.2643930 0.0161545
0.3844534 0.2601939 0.0169207
0.4242178 0.2556668 0.0177916
0.4651127 0.2507848 0.0187600
0.5072955 0.2455024 0.0198687
0.5506980 0.2399689 0.0210779
0.5955712 0.2340743 0.0224375
0.6419500 0.2279329 0.0239233
0.6900313 0.2214870 0.0255740
0.7398700 0.2147852 0.0273945
0.7916787 0.2077980 0.0293861
0.8455364 0.2005879 0.0315899
0.9015183 0.1932122 0.0340017
0.9599014 0.1855896 0.0366587
1.0000000 0.1778409 0.0395926
1.0000000 0.1699417 0.0428285
1.0000000 0.1620944 0.0464377
1.0000000 0.1540558 0.0504329
1.0000000 0.1463864 0.0549132
1.0000000 0.1385782 0.0599431
0.0000000 0.3149193 0.0114738
0.0000000 0.3145846 0.0115148
0.0000000 0.3137539 0.0116335
0.0000000 0.3127404 0.0117704
0.0000000 0.3115597 0.0119353
0.0094824 0.3102333 0.0121182
0.0486961 0.3086653 0.0123449
0.0940020 0.3068718 0.0126115
0.1367700 0.3048400 0.0129178
0.1766992 0.3025196 0.0132737
0.2152773 0.2999174 0.0136895
0.2535989 0.2969635 0.0141743
0.2919007 0.2937016 0.0147297
0.3308253 0.2900622 0.0153670
0.3703675 0.2860980 0.0160849
0.4108596 0.2817324 0.0169194
0.4524688 0.2769879 0.0178581
0.4952650 0.2718831 0.0189095
0.5394161 0.2663897 0.0201053
0.5850495 0.2605203 0.0214338
0.6321046 0.2543799 0.0229105
0.6809248 0.2478287 0.0245492
0.7314100 0.2410698 0.0263585
0.7839413 0.2339274 0.0283510
0.8383108 0.2266794 0.0305542
0.8949866 0.2190647 0.0329735
0.9538870 0.2113232 0.0356512
1.0000000 0.2033316 0.0386039
1.0000000 0.1953156 0.0418797
1.0000000 0.1870489 0.0455327
1.0000000 0.1788246 0.0495835
1.0000000 0.1706684 0.0540842
1.0000000 0.1628368 0.0591606
0.0000000 0.3390326 0.0108502
0.0000000 0.3387462 0.0108893
0.0000000 0.3380046 0.0110004
0.0000000 0.3371212 0.0111159
0.0000000 0.3360764 0.0112702
0.0000000 0.3349012 0.0114445
0.0222282 0.3334953 0.0116544
0.0654309 0.3319067 0.0118977
0.1126505 0.3300753 0.0121740
0.1553223 0.3279969 0.0125019
0.1959102 0.3255894 0.0128896
0.2354695 0.3228967 0.0133406
0.2749110 0.3198634 0.0138611
0.3146625 0.3164673 0.0144588
0.3550144 0.3127116 0.0151510
0.3962992 0.3085507 0.0159425
0.4385973 0.3040037 0.0168370
0.4821271 0.2990468 0.0178569
0.5269155 0.2937195 0.0190133
0.5732483 0.2879467 0.0203137
0.6210515 0.2818434 0.0217643
0.6705641 0.2753419 0.0233814
0.7218665 0.2684787 0.0251796
0.7750067 0.2613184 0.0271743
0.8301274 0.2539035 0.0293732
0.8874681 0.2461433 0.0318101
0.9470290 0.2381798 0.0345024
1.0000000 0.2300817 0.0374815
1.0000000 0.2217935 0.0407871
1.0000000 0.2131971 0.0444585
1.0000000 0.2047589 0.0485405
1.0000000 0.1962814 0.0530868
1.0000000 0.1880478 0.0582139
0.0000000 0.3640991 0.0100809
0.0000000 0.3638590 0.0101099
0.0000000 0.3631968 0.0102097
0.0000000 0.3624199 0.0103276
0.0000000 0.3615223 0.0104627
0.0000000 0.3604627 0.0106218
0.0000000 0.3592377 0.0108099
0.0350177 0.3577892 0.0110363
0.0831503 0.3561458 0.0112948
0.1306939 0.3542445 0.0116069
0.1738138 0.3520983 0.0119594
0.2153826 0.3496033 0.0123872
0.2561655 0.3468040 0.0128672
0.2969559 0.3436595 0.0134326
0.3382570 0.3401363 0.0140835
0.3803621 0.3362057 0.0148434
0.4233814 0.3318889 0.0157049
0.4676400 0.3271330 0.0166833
0.5132354 0.3219419 0.0178053
0.5602489 0.3163449 0.0190616
0.6088536 0.3103165 0.0204806
0.6590753 0.3038898 0.0220771
0.7110950 0.2970499 0.0238659
0.7650201 0.2898495 0.0258374
0.8208372 0.2823637 0.0280452
0.8788556 0.2745495 0.0304770
0.9390902 0.2664473 0.0331856
1.0000000 0.2580284 0.0362105
1.0000000 0.2494861 0.0395250
1.0000000 0.2408801 0.0432308
1.0000000 0.2320494 0.0473370
1.0000000 0.2233713 0.0519497
1.0000000 0.2147639 0.0571161
0.0000000 0.3902248 0.0091342
0.0000000 0.3899798 0.0091794
0.0000000 0.3894224 0.0092632
0.0000000 0.3887219 0.0093693
0.0000000 0.3879254 0.0094961
0.0000000 0.3869982 0.0096434
0.0000000 0.3858980 0.0098199
0.0028638 0.3846270 0.0100229
0.0486637 0.3831278 0.0102761
0.1007420 0.3814342 0.0105511
0.1484988 0.3794616 0.0108882
0.1926416 0.3772104 0.0112812
0.2352071 0.3746584 0.0117427
0.2775461 0.3717213 0.0122768
0.3198877 0.3684543 0.0128845
0.3628421 0.3647903 0.0136077
0.4067687 0.3607024 0.0144178
0.4517995 0.3561817 0.0153699
0.4981786 0.3512018 0.0164416
0.5459935 0.3457390 0.0176792
0.5953274 0.3398734 0.0190588
0.6462445 0.3335943 0.0206212
0.6990707 0.3268349 0.0223717
0.7537526 0.3196497 0.0243450
0.8103685 0.3121297 0.0265484
0.8691618 0.3042054 0.0289800
0.9300996 0.2960173 0.0317056
0.9934603 0.2875127 0.0347141
1.0000000 0.2787705 0.0381043
1.0000000 0.2698202 0.0418274
1.0000000 0.2608280 0.0459787
1.0000000 0.2519076 0.0506133
1.0000000 0.2428484 0.0558550
0.0000000 0.4174549 0.0080271
0.0000000 0.4172828 0.0080473
0.0000000 0.4167541 0.0081441
0.0000000 0.4161651 0.0082417
0.0000000 0.4154597 0.0083565
0.0000000 0.4146273 0.0084907
0.0000000 0.4136511 0.0086541
0.0000000 0.4125176 0.0088461
0.0120242 0.4111941 0.0090615
0.0626530 0.4096682 0.0093312
0.1177523 0.4078777 0.0096533
0.1662193 0.4058275 0.0100192
0.2116391 0.4034850 0.0104439
0.2555567 0.4008515 0.0109374
0.2994016 0.3978186 0.0115195
0.3436864 0.3943666 0.0122014
0.3885687 0.3905257 0.0129923
0.4344961 0.3862466 0.0139038
0.4816186 0.3815202 0.0149351
0.5302839 0.3762772 0.0161234
0.5802996 0.3706347 0.0174651
0.6321026 0.3644670 0.0189977
0.6857330 0.3578185 0.0207268
0.7411028 0.3507584 0.0226878
0.7985618 0.3432438 0.0248595
0.8581309 0.3353300 0.0272983
0.9199021 0.3270246 0.0300189
0.9840328 0.3183904 0.0330787
1.0000000 0.3095096 0.0364638
1.0000000 0.3004293 0.0402251
1.0000000 0.2911682 0.0444312
1.0000000 0.2818203 0.0490911
1.0000000 0.2725729 0.0543794
0.0000000 0.4459494 0.0067128
0.0000000 0.4457954 0.0067349
0.0000000 0.4453505 0.0068169
0.0000000 0.4447862 0.0069199
0.0000000 0.4441830 0.0070151
0.0000000 0.4434520 0.0071344
0.0000000 0.4426124 0.0072792
0.0000000 0.4415703 0.0074749
0.0000000 0.4403972 0.0076835
0.0215408 0.4390112 0.0079343
0.0779049 0.4374331 0.0082109
0.1345934 0.4355636 0.0085729
0.1841162 0.4334418 0.0089701
0.2309055 0.4310126 0.0094376
0.2767953 0.4281973 0.0099970
0.3224041 0.4250378 0.0106403
0.3685303 0.4214558 0.0113793
0.4153963 0.4174590 0.0122548
0.4634227 0.4129932 0.0132485
0.5129152 0.4080147 0.0143892
0.5638294 0.4025592 0.0157084
0.6164806 0.3965850 0.0171993
0.6708217 0.3901284 0.0188931
0.7270229 0.3832201 0.0208161
0.7854437 0.3757094 0.0229725
0.8457149 0.3678812 0.0254163
0.9083511 0.3595726 0.0281189
0.9732475 0.3509063 0.0311651
1.0000000 0.3419316 0.0345727
1.0000000 0.3325494 0.0384070
1.0000000 0.3231128 0.0426231
1.0000000 0.3134699 0.0473826
1.0000000 0.3036591 0.0527216
0.0000000 0.4757938 0.0051809
0.0000000 0.4756733 0.0051980
0.0000000 0.4752601 0.0052658
0.0000000 0.4747654 0.0053649
0.0000000 0.4742326 0.0054526
0.0000000 0.4735687 0.0055881
0.0000000 0.4728165 0.0057233
0.0000000 0.4719200 0.0058889
0.0000000 0.4708567 0.0060778
0.0000000 0.4696007 0.0063251
0.0316094 0.4681650 0.0065925
0.0941654 0.4665041 0.0069266
0.1513479 0.4645865 0.0072894
0.2024082 0.4623573 0.0077421
0.2511079 0.4597769 0.0082660
0.2985559 0.4568956 0.0088754
0.3462671 0.4535588 0.0095970
0.3943895 0.4498382 0.0104078
0.4435190 0.4456258 0.0113762
0.4938890 0.4409414 0.0124781
0.5457810 0.4357182 0.0137417
0.5991606 0.4300287 0.0151905
0.6543568 0.4237983 0.0168589
0.7115178 0.4169946 0.0187403
0.7705996 0.4097334 0.0208735
0.8318595 0.4019310 0.0232838
0.8952986 0.3936853 0.0260004
0.9611778 0.3848846 0.0290635
1.0000000 0.3757809 0.0324881
1.0000000 0.3664311 0.0363404
1.0000000 0.3567637 0.0405660
1.0000000 0.3468946 0.0453736
1.0000000 0.3369605 0.0507820
0.0000000 0.5070400 0.0034247
0.0000000 0.5069301 0.0034286
0.0000000 0.5065831 0.0034952
0.0000000 0.5061607 0.0035801
0.0000000 0.5056797 0.0036738
0.0000000 0.5050709 0.0037991
0.0000000 0.5043983 0.0039266
0.0000000 0.5035942 0.0040757
0.0000000 0.5026515 0.0042639
0.0000000 0.5015751 0.0044782
0.0000000 0.5002992 0.0047258
0.0418548 0.4987721 0.0050291
0.1094983 0.4970518 0.0053802
0.1685103 0.4949835 0.0058222
0.2213100 0.4926664 0.0063099
0.2717288 0.4899954 0.0068908
0.3213752 0.4869429 0.0075815
0.3710922 0.4834912 0.0083476
0.4214699 0.4795730 0.0092671
0.4728697 0.4752071 0.0103237
0.5257047 0.4702775 0.0115625
0.5801080 0.4648314 0.0129673
0.6363299 0.4587773 0.0146052
0.6942520 0.4522595 0.0164292
0.7541950 0.4451790 0.0185519
0.8164246 0.4374976 0.0209336
0.8807577 0.4293279 0.0236243
0.9474494 0.4206496 0.0267029
1.0000000 0.4115428 0.0301220
1.0000000 0.4020430 0.0339644
1.0000000 0.3922013 0.0382672
1.0000000 0.3821289 0.0431457
1.0000000 0.3718734 0.0485477
0.0000000 0.5398283 0.0013835
0.0000000 0.5397161 0.0014001
0.0000000 0.5394160 0.0014649
0.0000000 0.5390266 0.0015438
0.0000000 0.5386020 0.0016288
0.0000000 0.5380853 0.0017258
0.0000000 0.5375051 0.0018374
0.0000000 0.5367792 0.0020028
0.0000000 0.5359196 0.0021843
0.0000000 0.5349498 0.0023826
0.0000000 0.5338184 0.0026177
0.0000000 0.5324580 0.0029089
0.0531988 0.5308800 0.0032547
0.1252350 0.5290740 0.0036412
0.1853897 0.5269718 0.0041047
0.2404302 0.5245110 0.0046673
0.2930872 0.5217046 0.0053064
0.3451125 0.5184872 0.0060651
0.3970095 0.5148805 0.0069427
0.4497929 0.5107672 0.0079724
0.5037825 0.5061582 0.0091441
0.5592935 0.5009757 0.0105138
0.6162603 0.4952883 0.0120886
0.6752452 0.4889699 0.0139083
0.7361560 0.4821129 0.0159840
0.7991719 0.4746770 0.0183187
0.8644825 0.4666241 0.0210220
0.9320902 0.4580643 0.0240696
1.0000000 0.4490032 0.0274603
1.0000000 0.4394518 0.0313285
1.0000000 0.4294302 0.0357106
1.0000000 0.4192604 0.0405974
1.0000000 0.4087581 0.0460854
0.0000000 0.5742166 0.0000000
0.0000000 0.5741017 0.0000000
0.0000000 0.5738588 0.0000000
0.0000000 0.5735552 0.0000000
0.0000000 0.5731221 0.0000000
0.0000000 0.5726610 0.0000000
0.0000000 0.5721380 0.0000000
0.0000000 0.5715040 0.0000000
0.0000000 0.5707730 0.0000000
0.0000000 0.5698795 0.0000096
0.0000000 0.5688449 0.0002563
0.0000000 0.5676372 0.0005172
0.0000000 0.5662427 0.0008287
0.0653377 0.5645834 0.0012047
0.1411853 0.5626713 0.0016584
0.2033067 0.5604732 0.0021704
0.2603564 0.5579246 0.0027921
0.3153358 0.5549798 0.0035174
0.3696963 0.5516132 0.0043478
0.4241552 0.5478386 0.0053231
0.4796104 0.5434775 0.0064840
0.5362802 0.5386124 0.0078210
0.5943528 0.5332441 0.0093233
0.6542226 0.5272727 0.0110940
0.7162302 0.5206343 0.0131152
0.7801920 0.5134396 0.0154461
0.8463154 0.5056760 0.0181023
0.9150153 0.4971949 0.0211344
0.9861598 0.4881877 0.0245358
1.0000000 0.4787448 0.0284019
1.0000000 0.4687429 0.0327763
1.0000000 0.4584290 0.0377022
1.0000000 0.4477079 0.0432767
0.0000000 0.6103523 0.0000000
0.0000000 0.6102597 0.0000000
0.0000000 0.6099784 0.0000000
0.0000000 0.6097091 0.0000000
0.0000000 0.6093406 0.0000000
0.0000000 0.6089303 0.0000000
0.0000000 0.6084703 0.0000000
0.0000000 0.6079307 0.0000000
0.0000000 0.6072234 0.0000000
0.0000000 0.6064707 0.0000000
0.0000000 0.6055139 0.0000000
0.0000000 0.6044448 0.0000000
0.0000000 0.6031874 0.0000000
0.0000000 0.6016796 0.0000000
0.0784996 0.5999910 0.0000000
0.1571285 0.5979686 0.0000000
0.2219603 0.5956317 0.0000112
0.2811917 0.5929871 0.0006808
0.3388500 0.5898668 0.0014972
0.3956071 0.5863569 0.0024299
0.4526148 0.5823862 0.0035278
0.5106843 0.5778629 0.0048124
0.5701160 0.5727822 0.0062962
0.6312284 0.5670813 0.0080155
0.6941671 0.5607978 0.0100073
0.7591677 0.5538986 0.0122635
0.8264113 0.5463158 0.0148976
0.8960202 0.5380996 0.0178957
0.9680973 0.5292952 0.0212973
1.0000000 0.5198581 0.0251538
1.0000000 0.5100098 0.0294959
1.0000000 0.4995267 0.0344926
1.0000000 0.4887539 0.0400831
0.0000000 0.6481907 0.0000000
0.0000000 0.6481059 0.0000000
0.0000000 0.6479253 0.0000000
0.0000000 0.6476406 0.0000000
0.0000000 0.6473334 0.0000000
0.0000000 0.6470203 0.0000000
0.0000000 0.6465526 0.0000000
0.0000000 0.6460957 0.0000000
0.0000000 0.6454662 0.0000000
0.0000000 0.6447783 0.0000000
0.0000000 0.6439531 0.0000000
0.0000000 0.6429649 0.0000000
0.0000000 0.6418776 0.0000000
0.0000000 0.6405194 0.0000000
0.0000000 0.6389793 0.0000000
0.0933455 0.6371440 0.0000000
0.1736258 0.6350541 0.0000000
0.2408316 0.6326168 0.0000000
0.3030748 0.6297826 0.0000000
0.3629710 0.6266020 0.0000000
0.4224237 0.6229122 0.0002700
0.4824257 0.6187013 0.0015077
0.5434735 0.6139210 0.0029551
0.6056132 0.6086472 0.0046255
0.6698679 0.6026473 0.0065839
0.7360190 0.5960540 0.0087790
0.8044785 0.5886990 0.0113928
0.8749706 0.5808427 0.0143337
0.9481948 0.5721947 0.0177011
1.0000000 0.5630275 0.0215244
1.0000000 0.5531938 0.0259520
1.0000000 0.5428781 0.0308841
1.0000000 0.5319210 0.0365805
0.0000000 0.6880034 0.0000000
0.0000000 0.6879465 0.0000000
