luts/iPhone_2020_to_709_33.cube
#Created by: Davinci Resolve
TITLE 'BMD_iPhone_2020_to_709_33'
#LUT size
LUT_3D_SIZE 5
#data domain
DOMAIN_MIN 0.0 0.0 0.0
DOMAIN_MAX 1.0 1.0 1.0
#LUT data points
0.0082959 0.0082951 0.0082942
0.3020245 0.0173552 0.0164076
0.5423110 0.0160349 0.0240910
0.8813806 0.0049725 0.0368409
1.0000000 0.0000000 0.0636683
0.0000000 0.2255401 0.0127429
0.2076396 0.2093739 0.0148547
0.4967803 0.1759861 0.0209669
0.8619923 0.1285192 0.0339732
1.0000000 0.0715102 0.0617232
0.0000000 0.4174549 0.0080271
0.0120242 0.4111941 0.0090615
0.3885687 0.3905257 0.0129923
0.7985618 0.3432438 0.0248595
1.0000000 0.2725729 0.0543794
0.0000000 0.6880034 0.0000000
0.0000000 0.6855752 0.0000000
0.1072214 0.6762280 0.0000000
0.6432898 0.6461865 0.0028450
1.0000000 0.5772469 0.0326458
0.0000000 1.0000000 0.0000000
0.0000000 1.0000000 0.0000000
0.0000000 1.0000000 0.0000000
0.2454160 1.0000000 0.0000000
1.0000000 1.0000000 0.0000000
0.0000000 0.0554554 0.2347412
0.2772810 0.0272523 0.2290154
0.5257758 0.0116856 0.2465872
0.8817043 0.0000000 0.1966745
1.0000000 0.0000000 0.1647721
0.0000000 0.2189928 0.2072217
0.2032409 0.2032273 0.2032138
0.4944805 0.1670068 0.2030222
0.8619999 0.1169041 0.1806662
1.0000000 0.0630712 0.1625249
0.0000000 0.4129573 0.1723405
0.0152585 0.4067887 0.1713081
0.3884153 0.3863382 0.1679023
0.7979376 0.3393319 0.1603559
1.0000000 0.2688351 0.1548257
0.0000000 0.6858181 0.1211718
0.0000000 0.6834225 0.1211890
0.1105340 0.6741186 0.1212721
0.6432663 0.6443104 0.1223103
1.0000000 0.5755575 0.1303146
0.0000000 1.0000000 0.0410718
0.0000000 1.0000000 0.0413558
0.0000000 1.0000000 0.0427391
0.2467631 1.0000000 0.0480875
1.0000000 1.0000000 0.0687436
0.0000000 0.1201568 0.4348370
0.2314045 0.0879809 0.4188558
0.5024951 0.0429222 0.4254438
0.8500169 0.0000000 0.4570026
1.0000000 0.0000000 0.3823622
0.0000000 0.2256104 0.4182137
0.1784383 0.2088115 0.4131092
0.4709045 0.1763430 0.4091178
0.8363979 0.1176836 0.4421478
1.0000000 0.0193838 0.3746329
0.0000000 0.4071264 0.3875614
0.0024151 0.4010986 0.3860488
0.3808259 0.3808043 0.3807828
0.7938033 0.3295448 0.3821129
1.0000000 0.2536020 0.3492635
0.0000000 0.6801274 0.3380083
0.0000000 0.6777504 0.3375694
0.1133164 0.6685305 0.3359215
0.6424904 0.6388456 0.3304863
1.0000000 0.5701960 0.3179224
0.0000000 1.0000000 0.2629227
0.0000000 1.0000000 0.2628798
0.0000000 1.0000000 0.2628814
0.2512068 1.0000000 0.2628097
1.0000000 1.0000000 0.2638401
0.0000000 0.2193633 0.7168031
0.0629984 0.2030408 0.7122833
0.4453173 0.1600025 0.6858439
0.8196762 0.0745416 0.7021611
1.0000000 0.0000000 0.7494173
0.0000000 0.2733244 0.7086319
0.0313061 0.2612584 0.7055069
0.4250303 0.2261007 0.6846033
0.8068517 0.1622586 0.6943843
1.0000000 0.0567182 0.7438639
0.0000000 0.4141846 0.6855096
0.0000000 0.4081606 0.6845129
0.3504963 0.3856599 0.6770285
0.7613450 0.3409925 0.6715081
1.0000000 0.2565328 0.7213433
0.0000000 0.6720120 0.6416883
0.0000000 0.6697289 0.6411018
0.0829654 0.6606421 0.6388131
0.6312122 0.6311795 0.6311466
1.0000000 0.5562727 0.6332313
0.0000000 1.0000000 0.5688454
0.0000000 1.0000000 0.5686681
0.0000000 1.0000000 0.5680332
0.2545319 1.0000000 0.5655761
1.0000000 1.0000000 0.5578888
0.0000000 0.3759530 1.0000000
0.0000000 0.3692148 1.0000000
0.2203549 0.3445994 1.0000000
0.7349979 0.2817211 1.0000000
1.0000000 0.1521616 1.0000000
0.0000000 0.3990297 1.0000000
0.0000000 0.3929023 1.0000000
0.2081338 0.3701989 1.0000000
0.7269978 0.3111883 1.0000000
1.0000000 0.1952849 1.0000000
0.0000000 0.4787358 1.0000000
0.0000000 0.4742878 1.0000000
0.1527942 0.4569420 1.0000000
0.6962278 0.4075921 1.0000000
1.0000000 0.3177924 1.0000000
0.0000000 0.6827967 1.0000000
0.0000000 0.6805709 1.0000000
0.0000000 0.6714177 1.0000000
0.5863523 0.6386055 1.0000000
1.0000000 0.5734843 1.0000000
0.0000000 1.0000000 1.0000000
0.0000000 1.0000000 1.0000000
0.0000000 1.0000000 1.0000000
0.2166240 1.0000000 1.0000000
1.0000000 1.0000000 0.9999505
