luts/iPhone_2020_to_709_33.cube
#Created by: Davinci Resolve
TITLE 'BMD_iPhone_2020_to_709_33'
#LUT size
LUT_3D_SIZE 9
#data domain
DOMAIN_MIN 0.0 0.0 0.0
DOMAIN_MAX 1.0 1.0 1.0
#LUT data points
0.0082959 0.0082951 0.0082942
0.1923794 0.0154219 0.0132201
0.3020245 0.0173552 0.0164076
0.4139070 0.0176409 0.0198798
0.5423110 0.0160349 0.0240910
0.6955913 0.0120175 0.0294928
0.8813806 0.0049725 0.0368409
1.0000000 0.0000000 0.0473906
1.0000000 0.0000000 0.0636683
0.0000000 0.1380681 0.0123631
0.1251628 0.1269094 0.0136073
0.2608921 0.1124569 0.0157909
0.3881912 0.0971496 0.0188649
0.5262400 0.0807291 0.0229784
0.6855782 0.0639392 0.0284427
0.8751479 0.0465464 0.0359135
1.0000000 0.0285455 0.0466082
1.0000000 0.0130077 0.0630427
0.0000000 0.2255401 0.0127429
0.0550183 0.2197492 0.0134369
0.2076396 0.2093739 0.0148547
0.3473482 0.1947124 0.0172532
0.4967803 0.1759861 0.0209669
0.6655061 0.1537904 0.0263621
0.8619923 0.1285192 0.0339732
1.0000000 0.1003467 0.0449606
1.0000000 0.0715102 0.0617232
0.0000000 0.3149193 0.0114738
0.0000000 0.3115597 0.0119353
0.1367700 0.3048400 0.0129178
0.2919007 0.2937016 0.0147297
0.4524688 0.2769879 0.0178581
0.6321046 0.2543799 0.0229105
0.8383108 0.2266794 0.0305542
1.0000000 0.1953156 0.0418797
1.0000000 0.1628368 0.0591606
0.0000000 0.4174549 0.0080271
0.0000000 0.4154597 0.0083565
0.0120242 0.4111941 0.0090615
0.2116391 0.4034850 0.0104439
0.3885687 0.3905257 0.0129923
0.5802996 0.3706347 0.0174651
0.7985618 0.3432438 0.0248595
1.0000000 0.3095096 0.0364638
1.0000000 0.2725729 0.0543794
0.0000000 0.5398283 0.0013835
0.0000000 0.5386020 0.0016288
0.0000000 0.5359196 0.0021843
0.0531988 0.5308800 0.0032547
0.2930872 0.5217046 0.0053064
0.5037825 0.5061582 0.0091441
0.7361560 0.4821129 0.0159840
1.0000000 0.4490032 0.0274603
1.0000000 0.4087581 0.0460854
0.0000000 0.6880034 0.0000000
0.0000000 0.6872363 0.0000000
0.0000000 0.6855752 0.0000000
0.0000000 0.6823387 0.0000000
0.1072214 0.6762280 0.0000000
0.3886131 0.6650745 0.0000000
0.6432898 0.6461865 0.0028450
0.9259602 0.6170868 0.0137982
1.0000000 0.5772469 0.0326458
0.0000000 0.8680868 0.0000000
0.0000000 0.8675824 0.0000000
0.0000000 0.8665349 0.0000000
0.0000000 0.8645297 0.0000000
0.0000000 0.8605766 0.0000000
0.1695736 0.8531248 0.0000000
0.5037159 0.8394647 0.0000000
0.8123265 0.8166005 0.0000000
1.0000000 0.7813801 0.0128339
0.0000000 1.0000000 0.0000000
0.0000000 1.0000000 0.0000000
0.0000000 1.0000000 0.0000000
0.0000000 1.0000000 0.0000000
0.0000000 1.0000000 0.0000000
0.0000000 1.0000000 0.0000000
0.2454160 1.0000000 0.0000000
0.6432551 1.0000000 0.0000000
1.0000000 1.0000000 0.0000000
0.0000000 0.0339543 0.1436326
0.1744145 0.0205887 0.1395929
0.2870922 0.0171820 0.1530741
0.4066660 0.0127658 0.1454683
0.5414743 0.0073482 0.1258859
0.6963218 0.0034443 0.1087907
0.8813702 0.0000000 0.0986267
1.0000000 0.0000000 0.0965112
1.0000000 0.0000000 0.1023627
0.0000000 0.1332330 0.1250844
0.1223917 0.1223817 0.1223718
0.2585838 0.1067975 0.1240269
0.3873538 0.0900425 0.1197660
0.5263330 0.0729119 0.1112755
0.6856486 0.0574367 0.1021944
0.8748508 0.0420446 0.0960981
1.0000000 0.0249812 0.0955073
1.0000000 0.0097551 0.1017118
0.0000000 0.2216212 0.1095912
0.0560515 0.2159309 0.1084857
0.2073348 0.2057083 0.1064537
0.3466825 0.1911936 0.1034499
0.4961336 0.1725653 0.0995524
0.6649726 0.1505156 0.0954563
0.8615726 0.1254120 0.0926496
1.0000000 0.0972851 0.0933430
1.0000000 0.0684542 0.1002765
0.0000000 0.3122136 0.0936736
0.0000000 0.3088977 0.0932714
0.1376823 0.3022431 0.0924660
0.2920248 0.2912084 0.0911785
0.4522620 0.2746264 0.0894096
0.6318336 0.2521453 0.0875893
0.8380538 0.2246018 0.0868702
1.0000000 0.1931869 0.0892552
1.0000000 0.1610341 0.0974466
0.0000000 0.4156673 0.0755715
0.0000000 0.4136787 0.0754970
0.0138468 0.4094488 0.0753550
0.2122017 0.4018034 0.0751729
0.3887031 0.3889156 0.0750299
0.5801767 0.3691407 0.0753008
0.7984375 0.3418295 0.0768837
1.0000000 0.3081960 0.0818024
1.0000000 0.2713538 0.0921321
0.0000000 0.5386838 0.0560490
0.0000000 0.5374818 0.0561335
0.0000000 0.5347956 0.0563139
0.0546717 0.5297718 0.0566799
0.2934486 0.5206364 0.0574409
0.5039467 0.5051008 0.0590694
0.7361354 0.4811324 0.0624394
1.0000000 0.4480882 0.0691978
1.0000000 0.4079358 0.0824067
0.0000000 0.6872883 0.0341896
0.0000000 0.6865280 0.0343217
0.0000000 0.6848843 0.0345964
0.0000000 0.6816522 0.0351531
0.1087182 0.6755124 0.0362971
0.3889608 0.6643884 0.0385060
0.6432018 0.6456001 0.0427871
0.9259887 0.6164646 0.0509719
1.0000000 0.5767537 0.0659940
0.0000000 0.8675677 0.0087466
0.0000000 0.8671109 0.0088887
0.0000000 0.8660790 0.0091608
0.0000000 0.8640553 0.0097867
0.0000000 0.8601246 0.0109106
0.1700374 0.8527071 0.0132210
0.5038236 0.8390596 0.0178287
0.8122997 0.8161942 0.0264411
1.0000000 0.7809681 0.0425954
0.0000000 1.0000000 0.0000000
0.0000000 1.0000000 0.0000000
0.0000000 1.0000000 0.0000000
0.0000000 1.0000000 0.0000000
0.0000000 1.0000000 0.0000000
0.0000000 1.0000000 0.0000000
0.2460396 1.0000000 0.0000000
0.6433712 1.0000000 0.0000000
1.0000000 1.0000000 0.0125741
0.0000000 0.0554554 0.2347412
0.1573346 0.0376947 0.2219415
0.2772810 0.0272523 0.2290154
0.3909378 0.0200432 0.2454465
0.5257758 0.0116856 0.2465872
0.6898785 0.0000000 0.2247565
0.8817043 0.0000000 0.1966745
1.0000000 0.0000000 0.1752156
1.0000000 0.0000000 0.1647721
0.0000000 0.1348215 0.2214255
0.1149669 0.1229606 0.2180392
0.2482750 0.1097420 0.2161139
0.3709099 0.0940822 0.2330943
0.5151306 0.0717650 0.2324127
0.6824307 0.0481882 0.2138253
0.8756667 0.0283714 0.1909732
1.0000000 0.0147020 0.1728846
1.0000000 0.0042011 0.1639692
0.0000000 0.2189928 0.2072217
0.0513012 0.2134024 0.2058562
0.2032409 0.2032273 0.2032138
0.3434025 0.1874692 0.2057105
0.4944805 0.1670068 0.2030222
0.6649275 0.1428976 0.1938281
0.8619999 0.1169041 0.1806662
1.0000000 0.0901496 0.1685569
1.0000000 0.0630712 0.1625249
0.0000000 0.3090679 0.1912784
0.0000000 0.3058028 0.1905908
0.1364946 0.2991972 0.1891553
0.2907146 0.2881890 0.1866803
0.4509229 0.2716006 0.1827466
0.6307093 0.2489932 0.1771319
0.8372828 0.2211857 0.1702094
1.0000000 0.1897494 0.1634610
1.0000000 0.1573313 0.1598470
0.0000000 0.4129573 0.1723405
0.0000000 0.4109914 0.1720064
0.0152585 0.4067887 0.1713081
0.2122260 0.3992183 0.1700347
0.3884153 0.3863382 0.1679023
0.5797508 0.3665984 0.1646148
0.7979376 0.3393319 0.1603559
1.0000000 0.3057718 0.1562167
1.0000000 0.2688351 0.1548257
0.0000000 0.5366625 0.1493896
0.0000000 0.5354372 0.1492866
0.0000000 0.5327721 0.1490225
0.0571711 0.5277419 0.1485469
0.2938800 0.5186888 0.1477335
0.5038834 0.5032435 0.1464715
0.7359276 0.4793324 0.1449320
1.0000000 0.4463360 0.1439545
1.0000000 0.4063640 0.1457042
0.0000000 0.6858181 0.1211718
0.0000000 0.6850883 0.1211607
0.0000000 0.6834225 0.1211890
0.0000000 0.6801928 0.1211929
0.1105340 0.6741186 0.1212721
0.3894502 0.6630107 0.1215516
0.6432663 0.6443104 0.1223103
0.9258558 0.6152532 0.1246049
1.0000000 0.5755575 0.1303146
0.0000000 0.8666404 0.0849376
0.0000000 0.8661981 0.0849982
0.0000000 0.8651794 0.0851472
0.0000000 0.8631719 0.0854999
0.0000000 0.8592282 0.0861328
0.1723448 0.8516859 0.0875691
0.5036973 0.8382650 0.0902169
0.8124301 0.8153440 0.0955887
1.0000000 0.7801816 0.1057460
0.0000000 1.0000000 0.0410718
0.0000000 1.0000000 0.0411296
0.0000000 1.0000000 0.0413558
0.0000000 1.0000000 0.0417944
0.0000000 1.0000000 0.0427391
0.0000000 1.0000000 0.0445813
0.2467631 1.0000000 0.0480875
0.6430755 1.0000000 0.0550325
1.0000000 1.0000000 0.0687436
0.0000000 0.0840052 0.3279147
0.1221833 0.0661497 0.3199614
0.2644999 0.0485953 0.3077962
0.3822059 0.0342159 0.3204778
0.5121101 0.0214963 0.3401406
0.6716818 0.0075827 0.3452742
0.8710194 0.0000000 0.3213946
1.0000000 0.0000000 0.2842974
1.0000000 0.0000000 0.2537332
0.0000000 0.1432330 0.3186983
0.0922268 0.1322835 0.3153712
0.2412502 0.1163763 0.3051862
0.3648215 0.1010658 0.3114503
0.4994599 0.0816090 0.3323010
0.6647503 0.0559143 0.3374385
0.8667576 0.0244752 0.3145259
1.0000000 0.0000000 0.2804415
1.0000000 0.0000000 0.2520853
0.0000000 0.2195542 0.3057950
0.0370295 0.2139611 0.3047114
0.1977702 0.2024351 0.3010653
0.3338547 0.1894204 0.2990732
0.4762943 0.1713558 0.3186308
0.6515391 0.1431378 0.3199570
0.8572236 0.1077573 0.3000630
1.0000000 0.0704133 0.2724874
1.0000000 0.0466855 0.2487317
0.0000000 0.3066228 0.2912005
0.0000000 0.3034110 0.2904077
0.1300661 0.2968822 0.2887664
0.2859347 0.2859174 0.2859001
0.4470668 0.2679375 0.2889840
0.6285788 0.2432868 0.2866631
0.8370847 0.2130338 0.2761829
1.0000000 0.1801786 0.2596265
1.0000000 0.1494309 0.2432361
0.0000000 0.4098408 0.2728744
0.0000000 0.4078610 0.2724487
0.0131450 0.4037142 0.2715231
0.2103757 0.3961399 0.2698274
0.3864487 0.3833311 0.2668658
0.5779940 0.3635333 0.2620470
0.7965221 0.3360523 0.2549932
1.0000000 0.3021694 0.2459538
1.0000000 0.2649197 0.2366960
0.0000000 0.5337617 0.2500672
0.0000000 0.5325250 0.2498681
0.0000000 0.5299027 0.2493906
0.0574442 0.5249364 0.2485091
0.2936007 0.5158959 0.2468815
0.5034375 0.5004175 0.2441266
0.7352189 0.4765880 0.2397631
1.0000000 0.4435948 0.2339321
1.0000000 0.4034271 0.2278692
0.0000000 0.6835213 0.2218922
0.0000000 0.6827779 0.2218156
0.0000000 0.6810944 0.2216446
0.0000000 0.6779269 0.2212794
0.1128428 0.6718400 0.2206109
0.3897168 0.6608204 0.2194418
0.6433641 0.6420611 0.2175819
0.9256129 0.6131284 0.2151171
1.0000000 0.5735260 0.2130571
0.0000000 0.8649267 0.1874435
0.0000000 0.8644786 0.1874413
0.0000000 0.8634810 0.1873740
0.0000000 0.8614376 0.1873991
0.0000000 0.8575211 0.1873511
0.1733676 0.8501142 0.1873315
0.5042279 0.8366454 0.1873778
0.8125826 0.8137274 0.1879799
1.0000000 0.7786656 0.1901256
0.0000000 1.0000000 0.1455251
0.0000000 1.0000000 0.1455617
0.0000000 1.0000000 0.1456514
0.0000000 1.0000000 0.1457768
0.0000000 1.0000000 0.1462071
0.0000000 1.0000000 0.1469209
0.2483817 1.0000000 0.1484137
0.6440539 1.0000000 0.1514510
1.0000000 1.0000000 0.1575584
0.0000000 0.1201568 0.4348370
0.0649700 0.1074004 0.4307885
0.2314045 0.0879809 0.4188558
0.3689554 0.0652350 0.4087270
0.5024951 0.0429222 0.4254438
0.6573082 0.0218397 0.4492363
0.8500169 0.0000000 0.4570026
1.0000000 0.0000000 0.4293771
1.0000000 0.0000000 0.3823622
0.0000000 0.1615108 0.4285595
0.0469757 0.1524322 0.4260514
0.2139851 0.1369845 0.4173970
0.3556642 0.1178795 0.4057666
0.4918657 0.0966847 0.4193856
0.6495062 0.0697008 0.4442042
0.8455327 0.0386542 0.4524048
1.0000000 0.0000000 0.4251295
1.0000000 0.0000000 0.3799014
0.0000000 0.2256104 0.4182137
0.0101665 0.2200067 0.4171580
0.1784383 0.2088115 0.4131092
0.3284144 0.1930446 0.4027791
0.4709045 0.1763430 0.4091178
0.6335127 0.1527279 0.4345305
0.8363979 0.1176836 0.4421478
1.0000000 0.0657396 0.4158507
1.0000000 0.0193838 0.3746329
0.0000000 0.3069083 0.4043837
0.0000000 0.3037927 0.4036570
0.1127912 0.2971042 0.4023556
0.2803390 0.2845629 0.3982188
0.4364564 0.2698391 0.3958960
0.6072671 0.2482445 0.4192041
0.8210130 0.2137166 0.4216654
1.0000000 0.1707399 0.3984812
1.0000000 0.1282240 0.3649225
0.0000000 0.4071264 0.3875614
0.0000000 0.4051947 0.3870828
0.0024151 0.4010986 0.3860488
0.2028521 0.3936071 0.3841400
0.3808259 0.3808043 0.3807828
0.5732942 0.3594015 0.3846053
0.7938033 0.3295448 0.3821129
1.0000000 0.2926323 0.3696445
1.0000000 0.2536020 0.3492635
0.0000000 0.5302232 0.3656569
0.0000000 0.5290063 0.3653784
0.0000000 0.5263861 0.3647949
0.0533454 0.5214534 0.3637078
0.2911660 0.5124154 0.3616565
0.5009918 0.4970116 0.3580542
0.7331239 0.4730227 0.3522074
0.9993495 0.4398834 0.3435359
1.0000000 0.3993164 0.3324000
0.0000000 0.6801274 0.3380083
0.0000000 0.6794004 0.3378529
0.0000000 0.6777504 0.3375694
0.0000000 0.6745653 0.3370072
0.1133164 0.6685305 0.3359215
0.3891873 0.6575537 0.3339368
0.6424904 0.6388456 0.3304863
0.9247591 0.6098692 0.3251098
1.0000000 0.5701960 0.3179224
0.0000000 0.8621953 0.3038179
0.0000000 0.8617485 0.3037534
0.0000000 0.8606918 0.3036681
0.0000000 0.8587107 0.3034174
0.0000000 0.8547721 0.3029597
0.1757013 0.8474097 0.3021375
0.5047035 0.8339408 0.3007185
0.8124654 0.8111287 0.2984219
1.0000000 0.7760362 0.2954397
0.0000000 1.0000000 0.2629227
0.0000000 1.0000000 0.2628915
0.0000000 1.0000000 0.2628798
0.0000000 1.0000000 0.2629067
0.0000000 1.0000000 0.2628814
0.0000000 1.0000000 0.2628027
0.2512068 1.0000000 0.2628097
0.6445243 1.0000000 0.2629939
1.0000000 1.0000000 0.2638401
0.0000000 0.1643072 0.5624356
0.0000000 0.1559147 0.5603675
0.1742039 0.1404881 0.5534472
0.3329251 0.1191331 0.5391739
0.4871961 0.0905460 0.5294410
0.6459991 0.0551245 0.5506716
0.8334931 0.0215525 0.5796096
1.0000000 0.0000000 0.5896089
1.0000000 0.0000000 0.5563428
0.0000000 0.1922017 0.5582458
0.0000000 0.1853558 0.5566143
0.1618312 0.1722231 0.5511321
0.3224630 0.1533189 0.5385192
0.4792498 0.1285746 0.5271042
0.6394275 0.0979303 0.5467108
0.8286765 0.0598031 0.5763769
1.0000000 0.0199531 0.5868015
1.0000000 0.0000000 0.5536886
0.0000000 0.2417979 0.5505214
0.0000000 0.2368919 0.5494738
0.1340018 0.2268814 0.5461332
0.3003587 0.2111208 0.5367185
0.4623089 0.1902414 0.5236522
0.6257127 0.1661187 0.5390981
0.8182737 0.1335637 0.5697547
1.0000000 0.0881279 0.5805853
1.0000000 0.0209567 0.5479081
0.0000000 0.3129238 0.5387743
0.0000000 0.3097851 0.5382433
0.0742924 0.3029112 0.5368280
0.2596775 0.2906047 0.5320476
0.4309871 0.2727629 0.5202512
0.6014594 0.2531529 0.5274673
0.7994553 0.2244792 0.5584712
1.0000000 0.1822485 0.5682718
1.0000000 0.1228523 0.5366396
0.0000000 0.4073282 0.5226991
0.0000000 0.4054417 0.5222260
0.0000000 0.4013897 0.5212923
0.1838426 0.3936508 0.5197932
0.3744082 0.3790239 0.5148537
0.5607980 0.3615197 0.5120789
0.7681118 0.3354661 0.5403023
1.0000000 0.2936545 0.5435413
1.0000000 0.2430688 0.5155995
0.0000000 0.5270367 0.5025164
0.0000000 0.5258460 0.5022236
0.0000000 0.5232598 0.5015902
0.0354663 0.5184178 0.5003532
0.2820289 0.5094527 0.4980682
0.4940836 0.4940570 0.4940302
0.7273468 0.4681766 0.4986708
0.9961175 0.4320430 0.4957898
1.0000000 0.3878963 0.4805946
0.0000000 0.6758881 0.4759632
0.0000000 0.6751387 0.4758108
0.0000000 0.6735510 0.4754446
0.0000000 0.6703734 0.4747218
0.1079381 0.6643663 0.4733919
0.3859051 0.6534500 0.4709000
0.6396248 0.6347389 0.4665439
0.9219633 0.6057475 0.4594401
1.0000000 0.5656879 0.4489559
0.0000000 0.8581036 0.4424283
0.0000000 0.8576576 0.4423212
0.0000000 0.8566214 0.4421437
0.0000000 0.8545413 0.4417938
0.0000000 0.8506914 0.4411219
0.1768527 0.8433367 0.4397823
0.5041365 0.8299894 0.4373815
0.8116227 0.8071694 0.4332611
1.0000000 0.7721559 0.4268073
0.0000000 1.0000000 0.4014448
0.0000000 1.0000000 0.4014404
0.0000000 1.0000000 0.4013259
0.0000000 1.0000000 0.4012205
0.0000000 1.0000000 0.4009327
0.0000000 1.0000000 0.4004399
0.2534953 1.0000000 0.3994520
0.6449934 1.0000000 0.3978027
1.0000000 1.0000000 0.3951976
0.0000000 0.2193633 0.7168031
0.0000000 0.2139898 0.7156906
0.0629984 0.2030408 0.7122833
0.2676463 0.1852724 0.7030770
0.4453173 0.1600025 0.6858439
0.6275172 0.1243611 0.6755844
0.8196762 0.0745416 0.7021611
1.0000000 0.0226370 0.7373133
1.0000000 0.0000000 0.7494173
0.0000000 0.2376041 0.7140817
0.0000000 0.2327967 0.7130973
0.0532082 0.2229287 0.7100683
0.2600481 0.2065516 0.7018557
0.4389799 0.1828789 0.6854910
0.6225857 0.1505342 0.6739155
0.8156990 0.1070287 0.6996489
1.0000000 0.0530696 0.7352896
1.0000000 0.0015491 0.7477098
0.0000000 0.2733244 0.7086319
0.0000000 0.2694235 0.7078116
0.0313061 0.2612584 0.7055069
0.2434798 0.2470979 0.6990690
0.4250303 0.2261007 0.6846033
0.6120847 0.1977471 0.6709108
0.8068517 0.1622586 0.6943843
1.0000000 0.1165023 0.7309175
1.0000000 0.0567182 0.7438639
0.0000000 0.3304853 0.6995402
0.0000000 0.3275986 0.6990088
0.0000000 0.3214397 0.6975905
0.2105718 0.3101676 0.6934938
0.3990229 0.2921124 0.6824703
0.5920815 0.2676729 0.6669898
0.7904615 0.2391070 0.6853562
1.0000000 0.2002670 0.7229224
1.0000000 0.1479973 0.7363021
0.0000000 0.4141846 0.6855096
0.0000000 0.4122932 0.6852073
0.0000000 0.4081606 0.6845129
0.1426219 0.4001341 0.6827768
0.3504963 0.3856599 0.6770285
0.5545925 0.3645304 0.6629006
0.7613450 0.3409925 0.6715081
1.0000000 0.3065030 0.7093028
1.0000000 0.2565328 0.7213433
0.0000000 0.5271389 0.6662173
0.0000000 0.5260256 0.6659315
0.0000000 0.5235247 0.6652781
0.0000000 0.5187399 0.6641737
0.2598725 0.5094134 0.6623672
0.4865819 0.4917883 0.6563723
0.7121254 0.4707550 0.6530202
0.9648811 0.4391766 0.6873236
1.0000000 0.3892371 0.6912914
0.0000000 0.6720120 0.6416883
0.0000000 0.6713450 0.6415004
0.0000000 0.6697289 0.6411018
0.0000000 0.6666171 0.6403070
0.0829654 0.6606421 0.6388131
0.3750310 0.6498691 0.6360317
0.6312122 0.6311795 0.6311466
0.9149944 0.5998202 0.6367826
1.0000000 0.5562727 0.6332313
0.0000000 0.8529384 0.6093483
0.0000000 0.8525117 0.6092173
0.0000000 0.8514177 0.6090289
0.0000000 0.8494833 0.6085968
0.0000000 0.8456554 0.6077394
0.1702530 0.8382882 0.6060956
0.5002417 0.8249720 0.6030803
0.8079129 0.8021791 0.5978078
1.0000000 0.7670729 0.5892482
0.0000000 1.0000000 0.5688454
0.0000000 1.0000000 0.5687555
0.0000000 1.0000000 0.5686681
0.0000000 1.0000000 0.5684187
0.0000000 1.0000000 0.5680332
0.0000000 1.0000000 0.5671954
0.2545319 1.0000000 0.5655761
0.6444477 1.0000000 0.5627741
1.0000000 1.0000000 0.5578888
0.0000000 0.2885497 0.9042839
0.0000000 0.2852106 0.9036526
0.0000000 0.2779495 0.9019582
0.1445036 0.2648930 0.8974195
0.3671040 0.2436507 0.8856909
0.5771118 0.2130433 0.8645800
0.7967095 0.1690525 0.8530943
1.0000000 0.1060096 0.8861327
1.0000000 0.0310557 0.9286762
0.0000000 0.3002391 0.9025484
0.0000000 0.2971113 0.9019188
0.0000000 0.2902362 0.9003491
0.1383328 0.2777713 0.8961005
0.3623525 0.2574731 0.8849598
0.5731149 0.2279823 0.8643567
0.7937484 0.1861901 0.8519716
1.0000000 0.1283882 0.8845055
1.0000000 0.0552169 0.9273434
0.0000000 0.3244845 0.8988643
0.0000000 0.3216986 0.8982986
0.0000000 0.3155987 0.8968576
0.1237914 0.3043535 0.8931841
0.3520857 0.2856203 0.8833453
0.5644357 0.2581313 0.8638758
0.7871211 0.2200848 0.8497504
1.0000000 0.1698087 0.8810140
1.0000000 0.1072022 0.9245556
0.0000000 0.3666928 0.8922862
0.0000000 0.3643781 0.8918484
0.0000000 0.3593618 0.8907191
0.0911746 0.3499056 0.8878510
0.3318731 0.3335270 0.8800684
0.5477961 0.3087053 0.8627892
0.7744033 0.2751562 0.8461305
1.0000000 0.2331845 0.8746156
1.0000000 0.1803165 0.9192585
0.0000000 0.4348499 0.8812481
0.0000000 0.4331228 0.8809588
0.0000000 0.4293428 0.8802274
0.0184852 0.4220411 0.8784965
0.2924239 0.4087162 0.8735149
0.5162309 0.3873090 0.8601930
0.7501705 0.3580161 0.8414197
0.9919974 0.3237723 0.8637497
1.0000000 0.2778884 0.9094750
0.0000000 0.5355445 0.8641784
0.0000000 0.5343869 0.8640188
0.0000000 0.5318256 0.8635327
0.0000000 0.5268819 0.8627226
0.2113596 0.5172658 0.8605856
0.4573153 0.4999182 0.8536025
0.7045885 0.4744033 0.8364340
0.9565278 0.4459308 0.8469052
1.0000000 0.4047040 0.8929137
0.0000000 0.6722574 0.8407003
0.0000000 0.6715149 0.8405142
0.0000000 0.6700190 0.8400891
0.0000000 0.6669863 0.8393254
0.0030385 0.6611886 0.8379722
0.3481803 0.6498918 0.8357629
0.6218744 0.6285093 0.8284799
0.8965277 0.6028972 0.8244043
1.0000000 0.5649908 0.8660932
0.0000000 0.8481909 0.8107097
0.0000000 0.8477811 0.8105697
0.0000000 0.8467277 0.8103304
0.0000000 0.8447944 0.8098603
0.0000000 0.8410448 0.8088983
0.1419992 0.8337855 0.8071216
0.4873728 0.8205163 0.8037171
0.7978358 0.7977957 0.7977551
1.0000000 0.7597156 0.8046327
0.0000000 1.0000000 0.7713933
0.0000000 1.0000000 0.7713878
0.0000000 1.0000000 0.7712094
0.0000000 1.0000000 0.7709276
0.0000000 1.0000000 0.7704125
0.0000000 1.0000000 0.7693936
0.2480965 1.0000000 0.7674277
0.6399651 1.0000000 0.7637914
1.0000000 1.0000000 0.7574639
0.0000000 0.3759530 1.0000000
0.0000000 0.3739300 1.0000000
0.0000000 0.3692148 1.0000000
0.0000000 0.3604378 1.0000000
0.2203549 0.3445994 1.0000000
0.4814811 0.3188656 1.0000000
0.7349979 0.2817211 1.0000000
1.0000000 0.2280150 1.0000000
1.0000000 0.1521616 1.0000000
0.0000000 0.3832861 1.0000000
0.0000000 0.3812640 1.0000000
0.0000000 0.3767538 1.0000000
0.0000000 0.3682164 1.0000000
0.2165623 0.3527455 1.0000000
0.4785069 0.3275984 1.0000000
0.7325499 0.2910729 1.0000000
1.0000000 0.2388976 1.0000000
1.0000000 0.1665616 1.0000000
0.0000000 0.3990297 1.0000000
0.0000000 0.3971045 1.0000000
0.0000000 0.3929023 1.0000000
0.0000000 0.3848239 1.0000000
0.2081338 0.3701989 1.0000000
0.4720418 0.3461531 1.0000000
0.7269978 0.3111883 1.0000000
0.9958961 0.2616217 1.0000000
1.0000000 0.1952849 1.0000000
0.0000000 0.4280429 1.0000000
0.0000000 0.4263680 1.0000000
0.0000000 0.4226347 1.0000000
0.0000000 0.4154079 1.0000000
0.1906480 0.4021176 1.0000000
0.4594816 0.3798443 1.0000000
0.7165516 0.3469724 1.0000000
0.9878243 0.3016798 1.0000000
1.0000000 0.2431033 1.0000000
0.0000000 0.4787358 1.0000000
0.0000000 0.4773508 1.0000000
0.0000000 0.4742878 1.0000000
0.0000000 0.4682262 1.0000000
0.1527942 0.4569420 1.0000000
0.4349456 0.4373516 1.0000000
0.6962278 0.4075921 1.0000000
0.9722495 0.3673709 1.0000000
1.0000000 0.3177924 1.0000000
0.0000000 0.5609166 1.0000000
0.0000000 0.5598949 1.0000000
0.0000000 0.5575696 1.0000000
0.0000000 0.5529732 1.0000000
0.0542903 0.5441884 1.0000000
0.3872120 0.5281097 1.0000000
0.6579216 0.5022243 1.0000000
0.9426672 0.4668707 1.0000000
1.0000000 0.4261204 1.0000000
0.0000000 0.6827967 1.0000000
0.0000000 0.6820630 1.0000000
0.0000000 0.6805709 1.0000000
0.0000000 0.6774585 1.0000000
0.0000000 0.6714177 1.0000000
0.2902164 0.6597078 1.0000000
0.5863523 0.6386055 1.0000000
0.8872919 0.6075376 1.0000000
1.0000000 0.5734843 1.0000000
0.0000000 0.8484884 1.0000000
0.0000000 0.8480933 1.0000000
0.0000000 0.8471802 1.0000000
0.0000000 0.8453059 1.0000000
0.0000000 0.8416050 1.0000000
0.0322650 0.8344669 1.0000000
0.4545420 0.8208023 1.0000000
0.7865368 0.7946476 1.0000000
1.0000000 0.7637504 1.0000000
0.0000000 1.0000000 1.0000000
0.0000000 1.0000000 1.0000000
0.0000000 1.0000000 1.0000000
0.0000000 1.0000000 1.0000000
0.0000000 1.0000000 1.0000000
0.0000000 1.0000000 1.0000000
0.2166240 1.0000000 1.0000000
0.6243165 1.0000000 1.0000000
1.0000000 1.0000000 0.9999505
